symbols/web/sports_football/materialsymbolsoutlined/sports_football_wght300gradN25fill1_24px.svg

<svg xmlns="http://www.w3.org/2000/svg" height="24" width="24"><path d="M9.5 20.225q-1.1.15-2.75.025t-2.525-.5q-.35-.825-.475-2.475-.125-1.65.025-2.775Zm1.7-.275L4.05 12.8q.425-1.8 1.175-3.325.75-1.525 1.75-2.525 1-1.025 2.575-1.8 1.575-.775 3.2-1.1l7.2 7.225q-.325 1.75-1.087 3.275-.763 1.525-1.788 2.525-1.05 1.075-2.6 1.825T11.2 19.95ZM9.575 15.4l5.85-5.825-1-1-5.825 5.85Zm10.65-5.825-5.725-5.8q1.075-.175 2.738-.05 1.662.125 2.487.5.45 1 .55 2.562.1 1.563-.05 2.788Z"/></svg>

<svg xmlns="http://www.w3.org/2000/svg" height="24" width="24"><path d="M9.5 20.225Q8.4 20.375 6.75 20.25Q5.1 20.125 4.225 19.75Q3.875 18.925 3.75 17.275Q3.625 15.625 3.775 14.5ZM11.2 19.95 4.05 12.8Q4.475 11 5.225 9.475Q5.975 7.95 6.975 6.95Q7.975 5.925 9.55 5.15Q11.125 4.375 12.75 4.05L19.95 11.275Q19.625 13.025 18.863 14.55Q18.1 16.075 17.075 17.075Q16.025 18.15 14.475 18.9Q12.925 19.65 11.2 19.95ZM9.575 15.4 15.425 9.575 14.425 8.575 8.6 14.425ZM20.225 9.575 14.5 3.775Q15.575 3.6 17.238 3.725Q18.9 3.85 19.725 4.225Q20.175 5.225 20.275 6.787Q20.375 8.35 20.225 9.575Z"/></svg>
